X:7695
T:J'ai vu le loup
R:bourre  3 temps
C:trad
O:France
M:3/8
L:1/8
Q:1/4=110
K:G
cBc|A2c|B/2A/2 G2|cBc|ABG|A3:|
|:EFG|A2 G/2F/2|EA2|EFG|ABA|G3:||
